X: 21493
M: 2/4
L: 1/16
K: C
V: 1 name="6"
[|\
g6 (ef) | g2(cd) e2(ce) | d2(GA) B2c2 | .d2.e2 (f2^f2) |\
g6 (ef) | g2(cd) e2(Bc) | d2G2 A2B2 | c6 z2 H:|
K: G


